X:1
T:The Rich Mazurka
L:1/8
M:3/4
I:linebreak $
K:D
V:1 treble 
V:1
|:"D" d>c"G" B2"D" A2 | d>c"G" B2"D" A2 | dc"G" BA"D" GF |"A7" A2 G4 | c>B A2 G2 | c>B A2 G2 | %6
 c>B AG FE |1"D" F2 DA Bc :|2"D" D6 |:$"D" (3FG^G A2 A2 |"A7" A>_A G4 |"G" GA B2 B2 |"D" B>_B A4 | %13
 Ad e2 f2 |"G" fe B4 |1"A7" cd ^de fe |"D" dc BA _AG :|2$"A7" cB AG FE |"D" D4 z2 || %19
